X: 20402
T: Coming thro the Broom my Jo
%R: march
B: James Oswald "The Caledonian Pocket Companion" v.2 p.40 #2
Z: 2019 John Chambers <jc:trillian.mit.edu>
M: C|
L: 1/8
K: Am
%%slurgraces 1
%%graceslurs 1
"_Slow"G |\
E2A2 A2G2 | A2B2 {B2}e4 | d3e g2B2 | TA2G2 E4 |\
G3A B2A2 | G2A2 {GA}B4 | D4 (ED)(EF) | {GA}B2A2 A3 :|
|: e |\
a3b a2e2 | a3b a2e2 | g3a b2a2 | Tg2e2 d2(e^f) |\
g2e2 g2B2 | Td2e2 {e2}g4 | e4 Td2B2 | B2A2 A3 :|
|: G |\
(ED)(EG) A2(BG) | A2Bd {d2}e4 | d3e (ge)(dB) | (cB)(AG) E4 |\
(DE)(GA) TB2(AG) | TA2(GA) TB2(AG) | E3G (DE)(GA) | {GA}B2A2 A3 :|
|: e |\
a3b a2g2 | (ed)eg a2(ge) | g3a b2(ba) | (ag)(ge) d2(e^f) |\
(ga)(eg) (de)(Be) | d2e2 g2(b/a/g) | e4 degB | TB2A2 A3 :|
